en/_assets/wiki/svg/type-list.svg

<svg xmlns="http://www.w3.org/2000/svg" xmlns:xlink="http://www.w3.org/1999/xlink" width="16" height="16" class="yc-icon" fill="currentColor" stroke="none" aria-hidden="true"><svg viewBox="0 0 14 15" xmlns="http://www.w3.org/2000/svg"><path d="M9.625 6.4375H4.375C4.10156 6.4375 3.85547 6.60156 3.77344 6.84766C3.66406 7.09375 3.69141 7.36719 3.88281 7.55859L6.50781 10.4023C6.61719 10.5391 6.80859 10.5938 7 10.5938C7.16406 10.5938 7.35547 10.5391 7.46484 10.4023L10.0898 7.55859C10.2812 7.36719 10.3086 7.09375 10.1992 6.84766C10.1172 6.60156 9.87109 6.4375 9.625 6.4375ZM7 0.75C3.11719 0.75 0 3.89453 0 7.75C0 11.6328 3.11719 14.75 7 14.75C10.8555 14.75 14 11.6328 14 7.75C14 3.89453 10.8555 0.75 7 0.75ZM7 13.4375C3.85547 13.4375 1.3125 10.8945 1.3125 7.75C1.3125 4.63281 3.85547 2.0625 7 2.0625C10.1172 2.0625 12.6875 4.63281 12.6875 7.75C12.6875 10.8945 10.1172 13.4375 7 13.4375Z"></path></svg></svg>

<svg xmlns="http://www.w3.org/2000/svg" width="16" height="16" fill="currentColor" aria-hidden="true" class="yc-icon"><svg xmlns="http://www.w3.org/2000/svg" viewBox="0 0 14 15"><path d="M9.625 6.438h-5.25a.626.626 0 0 0-.602.41c-.109.246-.082.52.11.71l2.625 2.844c.11.137.3.192.492.192.164 0 .355-.055.465-.192L10.09 7.56c.191-.192.219-.465.11-.711a.617.617 0 0 0-.575-.41ZM7 .75c-3.883 0-7 3.145-7 7 0 3.883 3.117 7 7 7 3.855 0 7-3.117 7-7 0-3.855-3.145-7-7-7Zm0 12.688A5.683 5.683 0 0 1 1.312 7.75c0-3.117 2.543-5.688 5.688-5.688 3.117 0 5.688 2.57 5.688 5.688 0 3.145-2.57 5.688-5.688 5.688Z"/></svg></svg>
